src/sources/forus-platform/resources/_platform-common/assets/img/no-funds-icon.svg

<svg width="51" height="50" viewBox="0 0 51 50" fill="none" xmlns="http://www.w3.org/2000/svg">
<path d="M34.0119 14.718H33.3864V14.1869C33.3864 13.1038 32.505 12.2224 31.4219 12.2224H29.8606C28.7775 12.2224 27.896 13.1038 27.896 14.1869V16.2154H34.0119C34.4925 16.2154 34.8838 16.6067 34.8838 17.0874V27.0466C34.8838 27.4599 35.2193 27.7953 35.6325 27.7953C36.0458 27.7953 36.3812 27.4599 36.3812 27.0466V17.0874C36.3812 15.7807 35.3186 14.718 34.0119 14.718Z" fill="#8FA2A5"/>
<path d="M25.1009 12.2224H15.3678C14.9546 12.2224 14.6191 12.5578 14.6191 12.971V22.7041C14.6191 23.1174 14.9546 23.4528 15.3678 23.4528H25.1009C25.5142 23.4528 25.8496 23.1174 25.8496 22.7041V12.971C25.8496 12.5578 25.5142 12.2224 25.1009 12.2224Z" fill="#607D8B"/>
<path d="M22.6359 17.1014L20.2346 19.5027C20.0669 19.6964 19.8318 19.8636 19.5752 19.8516C19.3836 19.8516 19.1919 19.7787 19.0456 19.6325L17.8333 18.4201C17.5413 18.1276 17.5413 17.6539 17.8333 17.3614C18.1257 17.0689 18.5999 17.0689 18.8924 17.3614L19.5752 18.0443L21.5767 16.0427C21.8692 15.7502 22.3434 15.7502 22.6359 16.0427C22.9279 16.3352 22.9279 16.8089 22.6359 17.1014Z" fill="white"/>
<path d="M25.1009 26.5474H15.3678C14.9546 26.5474 14.6191 26.8828 14.6191 27.2961V37.0292C14.6191 37.4425 14.9546 37.7779 15.3678 37.7779H25.1009C25.5142 37.7779 25.8496 37.4425 25.8496 37.0292V27.2961C25.8496 26.8828 25.5142 26.5474 25.1009 26.5474Z" fill="#8FA2A5"/>
<path d="M27.896 17.7128H33.3864V30.6463H27.896V17.7128Z" fill="#8FA2A5"/>
<path d="M27.896 32.7366C27.8906 33.9742 28.738 35.0495 29.8925 35.3782V37.0292C29.8925 37.4425 30.228 37.7779 30.6412 37.7779C31.0545 37.7779 31.3899 37.4425 31.3899 37.0292V35.3782C32.5444 35.0496 33.3914 33.9746 33.3865 32.7366V32.1437H27.896V32.7366Z" fill="#607D8B"/>
</svg>

<svg width="51" height="50" fill="none" xmlns="http://www.w3.org/2000/svg"><path d="M34.012 14.718h-.626v-.531a1.967 1.967 0 0 0-1.964-1.965H29.86a1.967 1.967 0 0 0-1.965 1.965v2.028h6.116c.48 0 .872.392.872.872v9.96a.749.749 0 0 0 1.497 0v-9.96a2.372 2.372 0 0 0-2.37-2.369Z" fill="#8FA2A5"/><path d="M25.1 12.222h-9.732a.749.749 0 0 0-.749.749v9.733c0 .413.336.749.749.749H25.1a.749.749 0 0 0 .749-.749v-9.733a.749.749 0 0 0-.75-.749Z" fill="#607D8B"/><path d="m22.636 17.101-2.401 2.402c-.168.193-.403.36-.66.349a.747.747 0 0 1-.53-.22l-1.212-1.212a.75.75 0 0 1 1.06-1.059l.682.683 2.002-2.001a.749.749 0 0 1 1.059 1.058Z" fill="#fff"/><path d="M25.1 26.547h-9.732a.749.749 0 0 0-.749.75v9.732c0 .413.336.749.749.749H25.1a.749.749 0 0 0 .749-.749v-9.733a.749.749 0 0 0-.75-.749ZM27.896 17.713h5.49v12.933h-5.49V17.713Z" fill="#8FA2A5"/><path d="M27.896 32.737a2.757 2.757 0 0 0 1.996 2.641v1.651a.749.749 0 0 0 1.498 0v-1.65a2.757 2.757 0 0 0 1.996-2.642v-.593h-5.49v.593Z" fill="#607D8B"/></svg>
